X: 1
T:Port Sheain tSeosaimh  "arr. Kent Hiestand"
M:6/8
L:1/8
Q:80
C:John Mahinney's No. 1
S:Jig
K:HP
de|:
{gfg}f2A{g}A{d}A{e}A|
{g}BAG{gAGAG}A3|
{g}BdB{g}A{d}A{e}A|  !
{g}Bcd{g}efg|
{gfg}f2A{g}A{d}A{e}A|
{g}BAG{g}A{d}A{e}A|  !
{g}BdB{g}A{d}A{e}A|
{g}Bdc{Gdc}d3:| |:
{g}ef{e}f{g}efe|  !
{g}dB{G}A{Gdc}d2e|
{gfg}f2a{g}afd|
{g}fa{g}a{g}fa{g}a|  !
{g}ef{e}f{g}efe|
{g}dBA{Gdc}d2e|
{g}fA{d}A{g}A{d}A{e}A|  !
{g}Bdc{Gdc}d3:|
